icons/evolvere-blue-folders-flat-vivid-dark-fallback/apps/64/video-player.svg

<svg xmlns="http://www.w3.org/2000/svg" viewBox="0 0 64 64" xmlns:xlink="http://www.w3.org/1999/xlink"><defs><path id="0" d="m9 14.5a.5 .5 0 1 1 -1 0 .5 .5 0 1 1 1 0" fill="#414f5a" color="#000"/></defs><g color="#000"><path d="m0 2v32 28l2 2h30 30l2-2v-28-32h-32z" fill="#305772"/><path d="m0 16v18 28l2 2h30 30l2-2v-28-18h-32z" fill="#1a6aa0"/><path d="m0 16v5.563l32-2.563-13.875-3zm32 3l6.438-3h-12.875zm0 0l32 2.563v-5.563h-18.12zm0 0l32 29.594v-17.16zm0 0l13.844 45h18.16v-5.531zm0 0l-6.438 45h12.875zm0 0l-32 39.469v5.531h18.16zm0 0l-32 12.438v17.16z" fill="#73e5ff" fill-opacity=".129"/><path d="m2 0l-2 1v1h32 32v-1l-2-1h-30z" fill="#6bacd8"/></g><path d="m64 4l-2-2 2-1z" fill="#1f0700" fill-opacity=".138"/><g color="#000"><path d="m0 2v1.406l4 5.594-4 5.594v1.406h4l5-7-5-7h-4m9 0l5 7-5 7h5l5-7-5-7h-5m10 0l5 7-5 7h5l5-7-5-7h-5m10 0l5 7-5 7h5l5-7-5-7h-5m10 0l5 7-5 7h5l5-7-5-7h-5m10 0l5 7-5 7h5l5-7-5-7h-5m10 0l5 7v-7h-5m5 7l-5 7h5v-7" fill="#99bdd9"/><path d="m2 0l-2 1v1h4v-2h-2m7 0v2h5v-2h-5m10 0v2h5v-2h-5m10 0v2h3 2v-2h-2-3m10 0v2h5v-2h-5m10 0v2h5v-2h-5m10 0v2h5v-1l-2-1h-3" fill="#e9eff4"/></g><g fill="#002d4f" fill-opacity=".136"><path d="m0 8v1h2 30 32v-1h-32z"/><path d="m0 10v-1h2 30 32v1h-32z" color="#000"/></g><path d="m0 1v3l2-2" fill="#f5f8fa"/><g color="#000"><path d="m0 16v3h64v-3h-32z" fill="#002d4f" fill-opacity=".136"/><path d="m1 3l12 12h-12z" fill="#e8bc2f"/></g><use transform="translate(1-1)" xlink:href="#0"/><use transform="translate(-6-1)" xlink:href="#0"/><use transform="translate(-6-8)" xlink:href="#0"/><path transform="matrix(.33333 0 0 .3 13 21.6)" fill="#cee7fa" d="m42 90v-64l48 32z"/></svg>

<?xml version="1.0" encoding="UTF-8" standalone="no"?>
<!-- Created with Inkscape (http://www.inkscape.org/) -->

<svg
   xmlns:dc="http://purl.org/dc/elements/1.1/"
   xmlns:cc="http://creativecommons.org/ns#"
   xmlns:rdf="http://www.w3.org/1999/02/22-rdf-syntax-ns#"
   xmlns:svg="http://www.w3.org/2000/svg"
   xmlns="http://www.w3.org/2000/svg"
   xmlns:sodipodi="http://sodipodi.sourceforge.net/DTD/sodipodi-0.dtd"
   xmlns:inkscape="http://www.inkscape.org/namespaces/inkscape"
   width="64"
   height="64"
   id="svg13094"
   version="1.1"
   inkscape:version="0.91+devel r"
   sodipodi:docname="video-player.svg">
  <sodipodi:namedview
     id="base"
     pagecolor="#ffffff"
     bordercolor="#666666"
     borderopacity="1.0"
     inkscape:pageopacity="0"
     inkscape:pageshadow="2"
     inkscape:zoom="11.313709"
     inkscape:cx="34.269894"
     inkscape:cy="35.839847"
     inkscape:document-units="px"
     inkscape:current-layer="svg13094"
     showgrid="true"
     inkscape:snap-bbox="true"
     inkscape:bbox-paths="true"
     inkscape:bbox-nodes="true"
     inkscape:snap-bbox-edge-midpoints="true"
     inkscape:snap-bbox-midpoints="true"
     inkscape:object-paths="true"
     inkscape:snap-intersection-paths="true"
     inkscape:object-nodes="true"
     inkscape:snap-smooth-nodes="true"
     inkscape:snap-midpoints="true"
     inkscape:snap-object-midpoints="true"
     inkscape:snap-center="true"
     showguides="true"
     inkscape:guide-bbox="true"
     inkscape:window-width="1920"
     inkscape:window-height="1023"
     inkscape:window-x="-10"
     inkscape:window-y="35"
     inkscape:window-maximized="1"
     inkscape:snap-global="false"
     fit-margin-top="0"
     fit-margin-left="0"
     fit-margin-right="0"
     fit-margin-bottom="0"
     showborder="true"
     inkscape:showpageshadow="false"
     inkscape:snap-page="true">
    <inkscape:grid
       type="xygrid"
       id="grid3075"
       empspacing="5"
       visible="true"
       enabled="true"
       snapvisiblegridlinesonly="true"
       originx="0px"
       originy="18px" />
  </sodipodi:namedview>
  <defs
     id="defs13096" />
  <metadata
     id="metadata13099">
    <rdf:RDF>
      <cc:Work
         rdf:about="">
        <dc:format>image/svg+xml</dc:format>
        <dc:type
           rdf:resource="http://purl.org/dc/dcmitype/StillImage" />
        <dc:title></dc:title>
      </cc:Work>
    </rdf:RDF>
  </metadata>
  <path
     sodipodi:nodetypes="ccccccccccc"
     inkscape:connector-curvature="0"
     style="color:#000000;fill:#305772;fill-opacity:1;fill-rule:nonzero;stroke:none;stroke-width:2.28571415;marker:none;visibility:visible;display:inline;overflow:visible;enable-background:accumulate"
     d="m 0,2 0,32 0,28 2,2 30,0 30,0 2,-2 0,-28 0,-32 -32,0 z"
     id="path4086" />
  <path
     id="path3027"
     d="m 0,16 0,18 0,28 2,2 30,0 30,0 2,-2 0,-28 0,-18 -32,0 z"
     style="color:#000000;fill:#1a6aa0;fill-opacity:1;fill-rule:nonzero;stroke:none;stroke-width:2.28571415;marker:none;visibility:visible;display:inline;overflow:visible;enable-background:accumulate"
     inkscape:connector-curvature="0"
     sodipodi:nodetypes="ccccccccccc" />
  <path
     style="color:#000000;fill:#73e5ff;fill-opacity:0.12880144;fill-rule:nonzero;stroke:none;stroke-width:1;marker:none;visibility:visible;display:inline;overflow:visible;enable-background:accumulate"
     d="M 0,16 0,21.5625 32,19 18.125,16 z m 32,3 6.4375,-3 -12.875,0 z m 0,0 32,2.5625 L 64,16 45.875,16 z m 0,0 32,29.59375 0,-17.15625 z M 32,19 45.84375,64 64,64 64,58.46875 z m 0,0 -6.4375,45 12.875,0 z M 32,19 0,58.46875 0,64 18.15625,64 z m 0,0 -32,12.4375 0,17.15625 z"
     id="path3057"
     inkscape:connector-curvature="0"
     sodipodi:nodetypes="cccccccccccccccccccccccccccccccccccc" />
  <path
     id="path6161"
     d="M 2,0 0,1 0,2 32,2 64,2 64,1 62,0 32,0 z"
     style="color:#000000;fill:#6bacd8;fill-opacity:1;fill-rule:nonzero;stroke:none;stroke-width:2.28571415;marker:none;visibility:visible;display:inline;overflow:visible;enable-background:accumulate"
     inkscape:connector-curvature="0"
     sodipodi:nodetypes="ccccccccc" />
  <path
     d="M 64,4 62,2 64,1 z"
     id="path3028"
     style="fill:#1f0700;fill-opacity:0.13759861"
     inkscape:connector-curvature="0"
     sodipodi:nodetypes="cccc" />
  <path
     inkscape:connector-curvature="0"
     id="path5599"
     d="m 32,0 0,4 0,30 32,0 L 64,4 64,1 62,0 32,0 z m 0,34 -32,0 0,28 2,2 30,0 0,-30 z"
     style="color:#000000;fill:url(#linearGradient5601);fill-opacity:1;fill-rule:nonzero;stroke:none;marker:none;visibility:visible;display:inline;overflow:visible;enable-background:accumulate" />
  <path
     inkscape:connector-curvature="0"
     style="color:#000000;fill:#99bdd9;fill-opacity:1;fill-rule:nonzero;stroke:none;stroke-width:1;marker:none;visibility:visible;display:inline;overflow:visible;enable-background:accumulate"
     d="M 0,2 0,3.40625 4,9 0,14.59375 0,16 4,16 9,9 4,2 0,2 z m 9,0 5,7 -5,7 5,0 5,-7 -5,-7 -5,0 z m 10,0 5,7 -5,7 5,0 5,-7 -5,-7 -5,0 z m 10,0 5,7 -5,7 5,0 5,-7 -5,-7 -5,0 z m 10,0 5,7 -5,7 5,0 5,-7 -5,-7 -5,0 z m 10,0 5,7 -5,7 5,0 5,-7 -5,-7 -5,0 z m 10,0 5,7 0,-7 -5,0 z m 5,7 -5,7 5,0 0,-7 z"
     id="path3915" />
  <path
     inkscape:connector-curvature="0"
     style="color:#000000;fill:#e9eff4;fill-opacity:1;fill-rule:nonzero;stroke:none;stroke-width:1;marker:none;visibility:visible;display:inline;overflow:visible;enable-background:accumulate"
     d="M 2,0 0,1 0,2 4,2 4,0 2,0 z m 7,0 0,2 5,0 0,-2 -5,0 z m 10,0 0,2 5,0 0,-2 -5,0 z m 10,0 0,2 3,0 2,0 0,-2 -2,0 -3,0 z m 10,0 0,2 5,0 0,-2 -5,0 z m 10,0 0,2 5,0 0,-2 -5,0 z m 10,0 0,2 5,0 0,-1 -2,-1 -3,0 z"
     id="rect3921" />
  <path
     sodipodi:nodetypes="cccccccc"
     inkscape:connector-curvature="0"
     id="path3951"
     d="M 0,8 0,9 2,9 32,9 64,9 64,8 32,8 z"
     style="fill:#002d4f;fill-opacity:0.13595706;fill-rule:nonzero" />
  <path
     style="color:#000000;fill:#002d4f;fill-opacity:0.13595706;fill-rule:nonzero;stroke:none;stroke-width:1;marker:none;visibility:visible;display:inline;overflow:visible;enable-background:accumulate"
     d="m 0,10 0,-1 2,0 30,0 32,0 0,1 -32,0 z"
     id="path4298"
     inkscape:connector-curvature="0"
     sodipodi:nodetypes="cccccccc" />
  <path
     sodipodi:nodetypes="cccc"
     inkscape:connector-curvature="0"
     id="path3949"
     d="M 0,1 0,4 2,2 Z"
     style="fill:#f5f8fa;fill-opacity:1;fill-rule:nonzero" />
  <path
     id="path3398"
     d="m 0,16 0,3 64,0 0,-3 -32,0 z"
     style="color:#000000;fill:#002d4f;fill-opacity:0.13595706;fill-rule:nonzero;stroke:none;stroke-width:2.28571415;marker:none;visibility:visible;display:inline;overflow:visible;enable-background:accumulate"
     inkscape:connector-curvature="0"
     sodipodi:nodetypes="cccccc" />
  <g
     id="g3943">
    <path
       sodipodi:nodetypes="cccc"
       inkscape:connector-curvature="0"
       id="rect3934"
       d="M 1,3 13,15 1,15 z"
       style="color:#000000;fill:#e8bc2f;fill-opacity:1;fill-rule:nonzero;stroke:none;stroke-width:1;marker:none;visibility:visible;display:inline;overflow:visible;enable-background:accumulate" />
    <path
       transform="translate(1,-1)"
       sodipodi:type="arc"
       style="color:#000000;fill:#414f5a;fill-opacity:1;fill-rule:nonzero;stroke:none;stroke-width:1;marker:none;visibility:visible;display:inline;overflow:visible;enable-background:accumulate"
       id="path3939"
       sodipodi:cx="8.5"
       sodipodi:cy="14.5"
       sodipodi:rx="0.5"
       sodipodi:ry="0.5"
       d="m 9,14.5 a 0.5,0.5 0 1 1 -1,0 0.5,0.5 0 1 1 1,0 z" />
    <path
       sodipodi:type="arc"
       style="color:#000000;fill:#414f5a;fill-opacity:1;fill-rule:nonzero;stroke:none;stroke-width:1;marker:none;visibility:visible;display:inline;overflow:visible;enable-background:accumulate"
       id="path3941"
       sodipodi:cx="8.5"
       sodipodi:cy="14.5"
       sodipodi:rx="0.5"
       sodipodi:ry="0.5"
       d="m 9,14.5 a 0.5,0.5 0 1 1 -1,0 0.5,0.5 0 1 1 1,0 z"
       transform="translate(-6,-1)" />
    <path
       transform="translate(-6,-8)"
       d="m 9,14.5 a 0.5,0.5 0 1 1 -1,0 0.5,0.5 0 1 1 1,0 z"
       sodipodi:ry="0.5"
       sodipodi:rx="0.5"
       sodipodi:cy="14.5"
       sodipodi:cx="8.5"
       id="path3937"
       style="color:#000000;fill:#414f5a;fill-opacity:1;fill-rule:nonzero;stroke:none;stroke-width:1;marker:none;visibility:visible;display:inline;overflow:visible;enable-background:accumulate"
       sodipodi:type="arc" />
  </g>
  <polygon
     points="42,90 42,26 42,26 90,58 "
     id="polygon4081"
     style="fill:#cee7fa;fill-opacity:1"
     transform="matrix(0.33333333,0,0,0.30000074,13,21.599957)" />
</svg>
